Yaru++/categories/16/emoji-nature.svg

<svg height="16" width="16" xmlns="http://www.w3.org/2000/svg">
  <g fill="#808080">
    <path d="m11 1a10 10 0 0 0 -10 10 10 10 0 0 0 .6035156 3.392578 10 10 0 0 0 3.3964844.607422 10 10 0 0 0 5.513672-1.664062 2 2 0 0 1 -.513672-1.335938 2 2 0 0 1 2-2 2 2 0 0 1 1.333984.513672 10 10 0 0 0 1.666016-5.513672 10 10 0 0 0 -.603516-3.3925781 10 10 0 0 0 -3.396484-.6074219zm-.003906.9980469h.003906c.867661.0034839 1.718133.2065392 2.548828.4570312.248952.8296927.450429 1.6786615.453125 2.5449219v.0019531c-.000324 1.444458-.368902 2.8808678-1.035156 4.1621094a3 3 0 0 0 -.966797-.1640625 3 3 0 0 0 -3 3 3 3 0 0 0 .1640625.96875c-1.2802511.665407-2.7169638 1.032529-4.1601563 1.033203-.8689512-.003112-1.7208059-.206167-2.5527343-.457031-.2491373-.83031-.450615-1.67997-.453125-2.546875.0005289-2.3558825.9708529-4.6974155 2.6367187-6.3632814 1.6654115-1.6654114 4.0060963-2.6356612 6.3613284-2.6367187z"/>
    <path d="m15.477089.00679278c-2.928208 2.81817752-6.0120721 5.43095452-9.2641984 7.86820722l.6992188.6992188c3.1670076-2.4018906 6.2245606-5.033179 9.0834436-7.79466444z"/>
  </g>
</svg>

<svg xmlns="http://www.w3.org/2000/svg" width="16" height="16" version="1.1">
 <path d="M 11 1 A 10 10 0 0 0 1 11 A 10 10 0 0 0 1.6035156 14.392578 A 10 10 0 0 0 5 15 A 10 10 0 0 0 10.513672 13.335938 A 2 2 0 0 1 10 12 A 2 2 0 0 1 12 10 A 2 2 0 0 1 13.333984 10.513672 A 10 10 0 0 0 15 5 A 10 10 0 0 0 14.396484 1.6074219 A 10 10 0 0 0 11 1 z M 10.996094 1.9980469 L 11 1.9980469 C 11.867661 2.0015308 12.718133 2.2045861 13.548828 2.4550781 C 13.79778 3.2847708 13.999257 4.1337396 14.001953 5 L 14.001953 5.0019531 C 14.001629 6.4464111 13.633051 7.8828209 12.966797 9.1640625 A 3 3 0 0 0 12 9 A 3 3 0 0 0 9 12 A 3 3 0 0 0 9.1640625 12.96875 C 7.8838114 13.634157 6.4470987 14.001279 5.0039062 14.001953 C 4.134955 13.998841 3.2831003 13.795786 2.4511719 13.544922 C 2.2020346 12.714612 2.0005569 11.864952 1.9980469 10.998047 C 1.9985758 8.6421645 2.9688998 6.3006315 4.6347656 4.6347656 C 6.3001771 2.9693542 8.6408619 1.9991044 10.996094 1.9980469 z" style="font-variation-settings:normal;fill:#808080"/>
 <path d="M 15.477089,0.00679278 C 12.548881,2.8249703 9.4650169,5.4377473 6.2128906,7.875 L 6.9121094,8.5742188 C 10.079117,6.1723282 13.13667,3.5410398 15.995553,0.77955436 Z" style="font-variation-settings:normal;fill:#808080"/>
</svg>
